packages/icons/src/components/Icon/assets/small-outline/ticket.svg

<svg width="16" height="16" viewBox="0 0 16 16" fill="none" xmlns="http://www.w3.org/2000/svg">
<path d="M13.5 4.87451C13.4998 4.54939 13.2363 4.28587 12.9111 4.28564H3.08887C2.76375 4.28587 2.50023 4.54939 2.5 4.87451V5.57861C3.53359 5.89857 4.28595 6.85974 4.28613 7.99951C4.28613 9.13938 3.53359 10.1003 2.5 10.4204V11.1245C2.5 11.4498 2.76361 11.7141 3.08887 11.7144H12.9111C13.2364 11.7141 13.5 11.4498 13.5 11.1245V10.4204C12.4664 10.1003 11.7139 9.13938 11.7139 7.99951C11.7141 6.85974 12.4664 5.89857 13.5 5.57861V4.87451ZM15 5.76807C14.9999 6.46104 14.4521 6.87975 13.9932 6.99658C13.5452 7.11067 13.2141 7.5172 13.2139 7.99951C13.2139 8.48202 13.545 8.88931 13.9932 9.00342C14.4521 9.12025 14.9999 9.53888 15 10.2319V11.1245C15 12.2783 14.0648 13.2141 12.9111 13.2144H3.08887C1.93518 13.2141 1 12.2783 1 11.1245V10.2319C1.00007 9.53888 1.5479 9.12025 2.00684 9.00342C2.45499 8.88931 2.78613 8.48202 2.78613 7.99951C2.78594 7.5172 2.45485 7.11067 2.00684 6.99658C1.54793 6.87975 1.00015 6.46104 1 5.76807V4.87451C1.00023 3.72096 1.93532 2.78587 3.08887 2.78564H12.9111C14.0647 2.78587 14.9998 3.72096 15 4.87451V5.76807Z" />
<path d="M10.0406 5.32136C9.67081 5.32136 9.371 5.62117 9.371 5.991V6.88386C9.371 7.25369 9.67081 7.5535 10.0406 7.5535C10.4105 7.5535 10.7103 7.25369 10.7103 6.88386V5.991C10.7103 5.62117 10.4105 5.32136 10.0406 5.32136Z"/>
<path d="M9.371 9.116C9.371 8.74617 9.67081 8.44636 10.0406 8.44636C10.4105 8.44636 10.7103 8.74617 10.7103 9.116V10.0089C10.7103 10.3787 10.4105 10.6785 10.0406 10.6785C9.67081 10.6785 9.371 10.3787 9.371 10.0089V9.116Z" />
<path d="M10.4599 9.11628C10.4599 8.88461 10.2726 8.69651 10.0409 8.69636C9.80916 8.69636 9.621 8.88452 9.621 9.11628V10.0089C9.621 10.2406 9.80916 10.4288 10.0409 10.4288C10.2726 10.4286 10.4599 10.2405 10.4599 10.0089V9.11628ZM10.4599 5.99128C10.4599 5.75961 10.2726 5.57151 10.0409 5.57136C9.80916 5.57136 9.621 5.75952 9.621 5.99128V6.88386C9.621 7.11562 9.80916 7.30378 10.0409 7.30378C10.2726 7.30363 10.4599 7.11553 10.4599 6.88386V5.99128ZM10.9599 10.0089C10.9599 10.5167 10.5487 10.9286 10.0409 10.9288C9.53302 10.9288 9.121 10.5168 9.121 10.0089V9.11628C9.121 8.60838 9.53302 8.19636 10.0409 8.19636C10.5487 8.19651 10.9599 8.60847 10.9599 9.11628V10.0089ZM10.9599 6.88386C10.9599 7.39167 10.5487 7.80363 10.0409 7.80378C9.53302 7.80378 9.121 7.39176 9.121 6.88386V5.99128C9.121 5.48338 9.53302 5.07136 10.0409 5.07136C10.5487 5.07151 10.9599 5.48347 10.9599 5.99128V6.88386Z" />
</svg>

<svg xmlns="http://www.w3.org/2000/svg" width="16" height="16" fill="none" viewBox="0 0 16 16">
    <path d="M13.5 4.875a.59.59 0 0 0-.589-.59H3.09a.59.59 0 0 0-.589.59v.704a2.535 2.535 0 0 1 0 4.842v.704c0 .325.264.59.589.59h9.822a.59.59 0 0 0 .589-.59v-.705a2.535 2.535 0 0 1 0-4.841zm1.5.893c0 .693-.548 1.112-1.007 1.229a1.036 1.036 0 0 0 0 2.006c.46.117 1.007.536 1.007 1.229v.893a2.09 2.09 0 0 1-2.089 2.09H3.09A2.09 2.09 0 0 1 1 11.124v-.893c0-.693.548-1.112 1.007-1.229a1.037 1.037 0 0 0 0-2.006C1.547 6.88 1 6.46 1 5.768v-.893a2.09 2.09 0 0 1 2.089-2.09h9.822A2.09 2.09 0 0 1 15 4.876z"/>
    <path d="M10.04 5.321a.67.67 0 0 0-.669.67v.893a.67.67 0 1 0 1.34 0V5.99c0-.37-.3-.67-.67-.67m-.67 3.796a.67.67 0 1 1 1.34 0v.893a.67.67 0 0 1-1.34 0z"/>
    <path d="M10.46 9.116a.42.42 0 1 0-.839 0v.893a.42.42 0 0 0 .839 0zm0-3.125a.42.42 0 1 0-.839 0v.893a.42.42 0 0 0 .839 0zm.5 4.018a.92.92 0 1 1-1.839 0v-.893a.92.92 0 0 1 1.839 0zm0-3.125a.92.92 0 1 1-1.839 0V5.99a.92.92 0 0 1 1.839 0z"/>
</svg>
